X: 2
T: The Woman Of The House
R: reel
M: 4/4
L: 1/8
K: Gmaj
DGBG cABA|GBdg e2dB|GABG A2(3Bcd|e~A2 eAcA|DGBG cABA|GBdg e2dB|GABG A2GB|dBAd BGG2 :||gfeg fedf|efge dcBA|GABG A2(3Bcd|e~A2 eAcA|gzeg fedz|efge dcBA|GABG A2 GB | dBAd BGG2 :||


Tune 321	Setting 321

